X:47
T:Sun from the East. JJo.044, The
B:J.Jones MS,1801,N.Shrops.
A:N Shropshire
Z:Neil Brookes 2006
M:3/4
L:1/8
Q:3/4=50
K:C
G2|c2G2c2|e4dc|d2G2d2|f4ed|e2cdef|g2fedc|dB G2F2|F2E2G2|
c2e2dc|{e}d2cBAG|c3edc|{c}B4GG|ABc2BA|Bcd2e^f|g2dcBA|
G4dd|d2cBAG|d3ef2|e2dcBA|e4e2|a2edcB|cBABcA|defedc|
BAGABG|cBcdef|g3fe2|f2e2d2|c4|]

